!!!OTL: "Stolz gen Stolz" WO GEHST DU HIN DU STOLZE
!!!ARE: Europa, Mitteleuropa, Deutschland, Nord - Deutschland
!!!SCT: Z1156
!!!YEM: Copyright 1995, estate of Helmut Schaffrath.
**kern
*ICvox
*Ivox
*M3/4
*k[f#]
*G:
{4d
=1
4g
4b
4dd
=2
4ee
4dd
4cc
=3
2.dd
=4
4b
4r}
{4dd
=5
4dd
4cc
4cc
=6
2dd
4dd
=7
2b}
{4d
=8
4g
4b
4dd
=9
4ee
4dd
4cc
=10
2.dd
=11
4b
4r}
{4dd
=12
4dd
4cc
4cc
=13
2dd
4dd
=14
2b}
{4b
=15
2a
4a
=16
2dd
4cc
=17
2b
4b
=18
4b
4a}
{4g
=19
2a
4a
=20
2dd
4cc
=21
2b
4ee
=22
2dd}
{4d
=23
4g
4b
4dd
=24
4ee
4dd
4cc
=25
2.dd
=26
4b
4r}
{4dd
=27
4dd
4cc
4cc
=28
2dd
4dd
=29
2b}
==
!!!AGN: Liebes - Lied
!!!ONB: ESAC (Essen Associative Code) Database: ZUCCAL
!!!AMT: simple triple
!!!AIN: vox
!!!EED: Helmut Schaffrath
!!!EEV: 1.0
*-
